packages/calcite-ui-icons/icons/browser-plus-16.svg

<?xml version="1.0" encoding="UTF-8"?><svg id="icons" xmlns="http://www.w3.org/2000/svg" viewBox="0 0 16 16"><defs><style>.cls-1{fill:none;}</style></defs><path d="M0,1v9h1v-5h3v2h1v-2h10v9h-6v1h7V1H0ZM15,4h-1v-1h-1v1H1v-2h14v2ZM4,11.99994h3v1h-3v3.00006h-1v-3.00006H0v-1h3v-2.99994h1v2.99994Z"/><rect class="cls-1" width="16" height="16"/></svg>

<svg xmlns="http://www.w3.org/2000/svg" viewBox="0 0 16 16"><path d="M0 1v9h1V5h3v2h1V5h10v9H9v1h7V1H0zm15 3h-1V3h-1v1H1V2h14v2zM4 12h3v1H4v3H3v-3H0v-1h3V9h1v3z"/><path fill="none" d="M0 0h16v16H0z"/></svg>
